X: 6423
T: Castle, The
R: jig
M: 6/8
K: Adorian
b|:c'ba bag|age dBG|A^GA edB|deg age|
c'2a bag|age dBG|A^GA ege|1 dBG A2b:|2 dBG A2B||
|:cBA a2a|bag edB|GBd g2g|GBd cBA|
c2d d^cd|e^de gab|age dBG|1 EFG A2B:|2 EFG A2b||

